X: 1
T: Crathie Kirk
M: 4/4
L: 1/8
R: strathspey
K: Dmaj
A/G/|FA, F>ED3 E/F/|GB A>F E3A/G/|F>G EF D2 B,D/B,/|A,FGCD3:|!
F/G/|Ad c>e d3c/B/|AF E>DF2EF/G/|Ad cf/e/d2c/B/A/G/|FA, GF/E/D2DF/G/|!
AA gf/e/ d3e/f/|gb a>f e3A/F/|GB AB/c/ d/c/d/f/ GA/B/|AFE>DD3||
